X:25
T:Far Away
C:Pete Jung
N:TablEdited by Richard A Taylor
L:1/8
Q:1/4=132
M:3/4
K:D
z4 FA |: "Bm"AB zA Bd | "F#m"cA F2 FA | "Bm"AB zA Bd | "A"c4 dc | "G"B3A Bd | 
"F#m"cA F2 de | "Bm"fe d"F#m"c BA |1 B4 FA :|2 [B4G4] de |: "D"ef ze fa | "A"ec A2 de | 
"D"ef ze fa | "Em"e4 de | "Bm"fd Be "A"cA | "G"dB Gc "F#m"AF | "Bm"EF BF "F#m"AE | 
|1 A"Bm"B3 de :|2 A"Bm"B4z | z6 | z6 | z6 | z6 | z6 | z6 | z6 | z6 | z6 | z6 | 
z6 | z6 | 
 

